resources/svg/minor-last-click-model.svg

<svg xmlns="http://www.w3.org/2000/svg" viewBox="0 0 20 20" fill="currentColor"><path d="M4 12C4.55228 12 5 12.4477 5 13L5 16C5 16.5523 4.55228 17 4 17C3.44772 17 3 16.5523 3 16L3 13C3 12.4477 3.44772 12 4 12Z" fill="#5C5F62"/><path d="M8 12C8.55228 12 9 12.4477 9 13V16C9 16.5523 8.55228 17 8 17C7.44772 17 7 16.5523 7 16V13C7 12.4477 7.44772 12 8 12Z" fill="#5C5F62"/><path d="M12 12C12.5523 12 13 12.4477 13 13V16C13 16.5523 12.5523 17 12 17C11.4477 17 11 16.5523 11 16V13C11 12.4477 11.4477 12 12 12Z" fill="#5C5F62"/><path d="M16 3C16.5523 3 17 3.44772 17 4L17 16C17 16.5523 16.5523 17 16 17C15.4477 17 15 16.5523 15 16L15 4C15 3.44772 15.4477 3 16 3Z" fill="#5C5F62"/></svg>

<svg xmlns="http://www.w3.org/2000/svg" viewBox="0 0 20 20" fill="currentColor"><path d="M4 12a1 1 0 0 1 1 1v3a1 1 0 1 1-2 0v-3a1 1 0 0 1 1-1Z"/><path d="M8 12a1 1 0 0 1 1 1v3a1 1 0 1 1-2 0v-3a1 1 0 0 1 1-1Z"/><path d="M12 12a1 1 0 0 1 1 1v3a1 1 0 1 1-2 0v-3a1 1 0 0 1 1-1Z"/><path d="M16 3a1 1 0 0 1 1 1v12a1 1 0 1 1-2 0v-12a1 1 0 0 1 1-1Z"/></svg>
